X: 34427
T: Richmond Cotillion, The
R: reel
M: 4/4
K: Dmajor
M:2/4
|:d/A/F/G/|Af f/g/f/e/|dF A>d|cB GE|F/G/F/E/ D/E/F/G/|
A>f f/g/f/e/|dF A>d|cA Bc|ed:|
K: A Major
|:d/B/c/d/|e/f/e/d/ c/d/e/g/|ac e2|B>c dB|c/d/c/B/ A/B/c/d/|
ee/d/ c/d/e/g/|a/g/a/c/ e>a|1 ge fg|a2:|2 ge dB|A2||

